X:1
T:Praeambulum no.3 in d
T:Praeambulum no.3 in d
T:Heinrich Scheidemann (ca. 1595-1663) WV 31
T:Praeambulum no. 4 in d
T:Heinrich Scheidemann WV 32
T:Praeambulum no. 5 in d
T:Heinrich Scheidemann WV 33
T:Praeambulum no.13 in G
T:Heinrich Scheidemann WV 73
T:by Mutopia - Public Domain
T:by Mutopia - Public Domain
T:by Mutopia - Public Domain
T:by Mutopia - Public Domain
T:by Mutopia - Public Domain
T:by Mutopia - Public Domain
T:by Mutopia - Public Domain
T:by Mutopia - Public Domain
T:by Mutopia - Public Domain
T:by Mutopia - Public Domain
C:Heinrich Scheidemann (ca. 1595-1663) WV 31
Z:by Mutopia - Public Domain
%%score { ( 1 4 ) | ( 2 5 ) | ( 3 6 ) }
L:1/8
Q:1/4=90
M:4/4
K:C
V:1 treble nm="Organo" snm="Org."
V:4 treble 
V:2 bass 
V:5 bass 
V:3 bass 
V:6 bass 
V:1
 [A,D-]8 | D2 E^F G2 A2 | _B6 A2 | G4 G4- | G2 G2 F2 GF | E4 A4- | A2 GA B4- | B2 A2 A4- | %8
 A2 A2 ^GA^FG | A8 | z2 A2 A2 G2 | F3 E D4 | z2 d2 d2 c2 | _B3 A G2 F2 | E2 D2 D4- | %15
 D^C/D/ ED CB, C2 | D8- | D8 | [A,D]8 |][M:4/4][Q:1/4=90] [DA]8 | _B3 c B2 A2 | G4 G4- | %22
 G2 G2 ^F2 E2 | F2 G2 A2 B2 | c8- | c4 B4 | B2 A2 A4- | A2 ^G^F GAFG | A4 e2 d2 | c2 B2 A4 | %30
 c4 d2 c2 | B2 A2 G4 | B4 c2 B2 | A2 G2 F4 | A4 d4- | d2 c2 _B2 A2 | G2 F2 E2 D2 | ^C2 D3 D C2 | %38
 D2 DE ^FGAF | G4 A4 | _B2 cB AG A2 | D2 E^F G4- | G2 ^FG F2 E2 | [D^F]8 |] %44
[M:4/4][Q:1/4=90] A2 Bc d2 c2 | _BABc B2 A2 | G8 | F2 FG A2 B2 | c8- | c2 _B2 A2 G2 | A4 A2 d2- | %51
 dd c2 B2 A2- | AA ^G2 A2 E/^F/=G/E/ | A3 G F2 GA | _B4- BAGF | E4 DEFG | ABc_B A2 G2 | %57
 ^F2 A2 A2 A2 | B3 A GA/B/ cd | B4 A2 [A^c]2 | [A^c]2 [Ac]2 [Ad]2 =cB | AdAc [GB]2 [GB]2 | %62
 [GB]2 [GB]2 c2 GA | _Bc d3 dcB | A4- AAGF | E2 E2 F2 GF/G/ | A2 AB c4 | z c_BA GF G2 | F4 z2 FG | %69
 A4 z AGF | ED E2 D2 d2- | dd A2 c3 c | G2 _B3 B F2 | A3 A E2 G2 | C2 DE FGAB | c2 A2 G2 F2- | %76
 FF E2 F2 c2 | _B2 A2 G3 G | F2 f2 e2 d2- | dd ^c2 d2 a2 | g2 f2 e4 | d2 c2 B2 A2- | AA ^G2 A2 e2 | %83
 d2 c2 B4 | A2 e2 c2 c2 | A2 a2 f2 f2 | d2 d2 B2 B2 | G2 g2 e2 e2 | c3 c A3 A | d2 z d B2 z B | %90
 e2 e2 c2 z c | f2 e2 d2 c2 | _B2 A2 GAFG | E2 A3 A G2 | A2 ^c2 d3 d | ^c2 e2 f3 f | e2 ^c2 d3 =c | %97
 B2 c3 B A2 | _B3 A G2 FG | ABcd e2 d2- | d z ^c2 d2 A2 | _B3 B A2 ^F2 | G3 G ^F2 A2 | _BABc dBdc | %104
 _B3 d cdBc | A3 _B ABGA | ^F8 |][M:4/4][Q:1/4=90] G6 A2 | B2 c2 d4- | d4 d2 e2 | ^f2 g2 a2 d2- | %111
 dd c3 c B2 | c2 d2 e2 f2 | g4 z edc | B2 c2 d4 | z dcB A2 B2 | c2 d2 e4- | ef d3 e ^c2 | %118
 d2 e2 f4- | f2 e2 d4- | d2 cB c4- | c2 BA B4 | A2 G2 G3 A | B3 c A4 | G2 G2 B2 B>c | d4 z2 d2- | %126
 dd c2 B4- | B4 A4 | G2 ^F2 G2 A2 | D2 G2 B2 B>c | d6 g2- | gg f2 e4 | z8 | z4 z2 A2 | %134
 B2 c2 d2 d2- | dd c3 e d2 | A4 z4 | z2 D2 E2 E>^F | G4 z2 G2- | GG F2 E2 A2 | c2 c>d e4 | %141
 z2 e3 e d2 | c4 B4 | A4 G4 | ^F4 z4 | z4 z2 [Bd]2 | [ce]2 [df]2 e2 [df][ce] | [Bd]2 c2 z4 | %148
 z4 z2 B2- | B2 B2 A2 AB | c2 cd e2 e^f | g2 de cdBc | ABcd e2 B2 | c2 d3 cBA | GA B2 E^F G2- | %155
 GA B3 c d2- | d2 cB AG A2 | B8 | z8 | z2 A2 A2 B2 | c3 B A2 GF | EFGE A4 | D2 G2 G2 A2 | %163
 _B2 A2 G2 F2 | E4 z4 | z2 AG ABcd | B2 e3 d c2- | cB A2- AA d2 | ^c4 z4 | z2 d3 d c2 | B2 g4 f2 | %171
 e2 e3 e d2- | dd c3 c B2- | BB A3 A G2 | A2 B2 c2 d2 | e6 dc | Bc d2 cdBc | AG A2 G4 | z8 | z8 | %180
 z2 E3 E ^F2- | F^F G3 G A2- | AA B3 B c2- | cdef d4 | z8 | z2 d2 c2 B2 | A4 G2 z2 | z8 | %188
 z2 c2 d2 e2 | f2 g2 e4 | z8 | z2 e2 d2 c2 | B4 A2 z2 | z8 | z2 A2 Bc d2- | dd ^c2 d2 A2- | %196
 AG^FE D2 d2- | dcBA G2 z2 | z2 f2 d2 z e | ^c2 d2 B2 z =c | A2 B2 c2 d2 | e2 ^f2 g4- | %202
 g z ^fe fg/f/ g/f/e/f/ | g4 z4 | z4 z2 G2 | c3 B A2 G2 | c3 B A2 G2 | C F2 E D2 A2 | d3 c B2 A2 | %209
 d3 c B2 A2 | D G2 ^F E2 B2 | e3 d c2 B2 | e3 d c2 B2 | E A2 ^G A2 c2 | f3 e d2 c2 | f3 e d2 c2- | %216
 cc B3 B ^c2 | d2 _B3 B A2- | AA B2 c2 A2- | AA G2- GG A2 | Bc d3 c/B/ A/B/c/A/ | B4 A4 | G4 z4 | %223
 D3 E ^FGAB | c4 B4 | E3 ^F ^GA B2 | A4 z2 E2- | E^FGA Bc d2 | e4 d4 | c4 z2 d2- | dd c3 c B2- | %231
 BB A3 A G2- | GG^FE F G2 F | G8 | z8 | z8 | z8 | z4 c4- | c2 c2 B2 _B2 | A6 B2 | c2 _B2 A2 G2 | %241
 ^F4 G4- | G2 G2 ^F4 | G4 g4- | g2 g2 ^f2 =f2 | e8- | e2 e2 d2 c2 | d8 |] %248
V:2
 ^F,8 | G,4 D,4- | D,2 E,^F, G,2 A,2 | _B,8 | A,8 | A,6 G,2 | ^F,4 G,2 =F,2 | E,4 A,2 B,2 | %8
 C4 B,4 | A,3 B, C2 B,2 | A,3 G, F,2 E,2 | D,E,F,G, A,2 z2 | z2 G,2 ^F,4 | G,3 A, _B,2 A,2 | %14
 G,2 F,2 E,2 D,2 | F,4 E,4 | D,2 ^F,2 G,4- | G,2 ^F,G, F,2 E,2 | ^F,8 |][M:4/4] [^F,A,]8 | %20
 G,6 A,2 | _B,4 B,4- | B,2 _B,2 A,2 G,2 | A,8 | A,4 E,2 ^F,2 | G,2 A,2 B,2 C2 | D4 C4 | %27
 B,2 A,2 B,4 | C6 B,2 | A,4 z4 | A,8 | z8 | G,8 | z8 | F,8 | G,4 G,2 A,2 | _B,2 A,2 G,2 F,2 | %37
 E,2 F,G, E,4 | ^F,3 G, A,4 | z2 D,E, ^F,G,A,F, | G,4 A,4 | _B,4 B,4- | B,2 A,_B, A,2 G,2 | A,8 |] %44
[M:4/4] [D,^F,]8 | [G,,D,]8- | [G,,D,]2 [G,,D,][A,,C,] [_B,,D,]2 [C,E,]2 | [D,F,]8 | %48
 E,2 A,B, C2 D2 | E2 D2 ^C2 D2- | DD ^C2 D2 F2- | F2 E4 A,B, | CD B,2 A,4 | z2 E,2 F,2 E,2 | %54
 D,6 G,2- | G,2 G,2 F,4 | E,2 D,2 E,4 | D,2 D2 D2 D2 | G,4 C2 A,2 | E4 A,2 A,2 | A,2 A,2 A,2 D2 | %61
 D2 D2 G,2 G,2 | G,2 G,2 G,4- | G,4 A,4 | z8 | z2 A,2 D2 C2 | F2 F,2 z2 A,B, | C2 z2 z4 | %68
 z2 F,G, A,4 | z2 F,G, A,2 z2 | z8 | F3 F E2 E2- | EE D2 D3 D | C2 C3 C B,2 | A,3 G, F,4 | %75
 E,2 C2 _B,2 A,2 | G,4 F,2 F,2 | G,2 A,2 _B,2 C2 | F,2 A2 G2 F2 | E4 D2 D2 | E2 F2 G2 A2 | %81
 D2 E2 D2 C2 | B,4 A,2 A,2 | B,2 C2 D2 E2 | A,4 z2 A,2 | F,4 z2 D2 | B,4 z2 G,2 | E,4 z2 C2 | %88
 A,4 z A, D2 | z A, B,2 z B, E2 | z B, C2 z C F2 | z8 | z8 | z8 | z2 E2 F4 | E2 A2 F2 D2 | %96
 A2 E2 F3 E | D2 E3 D C2 | D3 C _B,2 A,=B, | CDEF G2 F2 | E4 D2 D2 | _B,2 G,2 D2 A,2 | _B,4 A,4 | %103
 [D,G,]8- | [D,G,]8 | z2 D2 C2 _B,2 | A,8 |][M:4/4] B,6 C2 | D6 C2 | B,6 CB, | A,8 | G,8 | C6 D2 | %113
 ECB,A, G,2 A,2 | B,2 A,2 B,2 C2 | D8 | C8 | B,3 A, G,4 | A,6 B,2 | C4 B,2 A,2 | E4 D2 C2 | D8 | %122
 C2 B,2 A,2 G,2 | ^F,2 G,3 G, F,2 | G,8 | z8 | z4 z2 G,2 | B,2 B,>C D4 | z2 D3 D C2 | %129
 B,3 C D2 G,2 | B,2 A,2 B,2 G,2 | A,2 B,2 C4 | z2 C3 C B,2 | C2 B,2 C2 D2 | G,3 A, B,CDD, | %135
 E,F,G,A, B,CDE | ^F4 z4 | z4 z2 C,2 | D,4 E,4 | F,2 G,2 A,4- | A,4 B,4 | C4 z4 | z4 z2 G,2- | %143
 G,G, ^F,2 G,4 | A,2 ^F,2 G,2 A,2 | B,2 A,G, ^F,2 G,2 | z8 | z4 z2 C2- | C2 C2 B,2 G,2 | D6 B,B, | %150
 A,2 FD C2 A,D | G,2 GE FDEC | D2 CB, A,2 E2- | E2 ^F2 G3 B, | C2 ^G,2 A,2 B,=G, | C2 DB, E2 ^FD | %156
 G2 C2 DG, D2 | G,4 G,2 A,2 | B,4- B,B,A,G, | A,8- | A,4 z4 | z2 E,2 E,2 ^F,2 | G,4 E,4 | D,8 | %164
 C,2 E,D, E,F,G,E, | ^F,2 D2 D2 A,2 | E3 D C3 B, | A,3 G, F,3 G, | E,3 A, ^C2 E2 | D2 z2 z4 | z8 | %171
 z2 C2 E2 G2 | G,2 A,2 C2 E2 | E,2 F,2 A,2 C2- | C2 B,2 A,4- | A,2 B,2 C2 D2 | E2 B,2 C2 G,2 | %177
 DECD G,2 B,2- | B,B, A,3 A, G,2- | G,G, ^F,3 G,A,F, | ^G,4 A,3 A, | B,3 B, C3 C | D3 D E3 E | %183
 F2 C2 G2 B,2 | A,2 G,2- G,G, ^F,2 | G,2 G,2 A,2 B,2 | C2 D2 G,2 E2 | D2 C2- CC B,2 | C2 G2 F2 E2 | %189
 D4 C2 C2 | B,2 A,3 A, ^G,2 | A,2 A,2 B,2 C2 | D2 E2 A,2 A,2 | G,2 F,2 E,4 | ^F,4 z4 | z8 | z8 | %197
 z8 | z8 | z8 | z8 | z8 | z8 | z2 B,2 B,2 C2 | A,2 B,2 C4 | z2 G,2 C3 B, | A,2 G,2 C3 B, | %207
 A,2 G,2 ^F,4- | F,2 A,2 D3 C | B,2 A,2 D3 C | B,2 A,2 G,4- | G,2 B,2 E3 D | C2 B,2 E3 D | %213
 C2 B,2 A,4- | A,2 C2 F3 E | D2 C2 F3 E | D4 G,4 | A,D, D2 C4 | D4 G,E, C2 | B,4 C2 E,^F, | %220
 G,A,B,C D4 | z2 G,2- G,G, ^F,2 | G,G,,B,,C, D,4 | z2 G,3 G, ^F,2 | A,A,,C,D, E,4 | %225
 z2 A,3 A, ^G,2 | A,A,,C,D, E,4 | z2 C3 C B,2 | CC,E,F, G,4 | z2 C3 C B,2 | CC,E,F, G,A,B,C | %231
 D2 C2 B,4 | A,D,/E,/ ^F,G, A,B, A,2 | B,6 C2 | D4 A,3 B, | C4 B,2 C2 | D4 D,4 | %237
 G,2 ^F,G, A,2 E,2 | ^F,4 G,4- | G,2 G,2 ^F,2 =F,2 | E,2 D,2 E,4 | A,4 D2 E2 | F2 E2 D2 C2 | %243
 B,4 G,2 A,2 | B,2 C2 D2 D,2 | G,6 A,2 | B,2 C2 B,2 A,2 | G,8 |] %248
V:3
 D,8 | G,,8- | G,,6 ^F,,2 | G,,2 A,,2 _B,,2 C,2 | D,8 | A,,8 | D,4 G,,4 | A,,4 F,,4 | E,,8 | A,,8 | %10
 z8 | z2 D,2 D,2 C,2 | _B,,2 A,,G,, D,4 | G,,8 | G,,4 _B,,4 | A,,8 | z2 D,2 G,,4 | D,8 | D,,8 |] %19
[M:4/4] D,8 | G,,8- | G,,2 A,,2 _B,,2 C,2 | D,8- | D,8 | A,,2 B,,2 C,2 D,2 | E,2 ^F,2 G,4 | %26
 D,4 A,,B,,C,D, | E,8 | A,,4 z4 | z4 A,2 G,2 | F,2 E,2 D,4 | G,4 G,2 F,2 | E,2 D,2 C,4 | %33
 F,4 F,2 E,2 | D,2 C,2 _B,,2 A,,2 | G,,8- | G,,8 | A,,8 | D,8 | G,,4 D,4 | G,,4 ^F,,4 | %41
 G,,6 _B,,C, | D,8 | D,,8 |][M:4/4] z8 | z8 | z8 | z8 | z8 | z8 | z8 | z8 | z8 | z8 | z8 | z8 | %56
 z8 | z8 | z8 | z8 | z8 | z8 | z8 | z8 | z8 | z8 | z8 | z8 | z8 | z8 | z8 | z8 | z8 | z8 | z8 | %75
 z8 | z8 | z8 | z8 | z8 | z8 | z8 | z8 | z8 | z8 | z8 | z8 | z8 | z8 | z8 | z8 | z8 | z8 | z8 | %94
 z8 | z8 | z8 | z8 | z8 | z8 | z8 | z8 | z8 | z8 | z8 | z8 | z8 |][M:4/4] G,8 | G,4 ^F,4 | G,8 | %110
 D,4- D,3 C, | B,,2 C,2 G,,4 | z4 C,4- | C,2 D,2 E,2 F,2 | G,8 | D,2 E,2 F,2 G,2 | %116
 A,A,,G,,F,, E,,2 F,,2 | G,,3 F,, E,,4 | D,,8 | E,,4 F,,4 | E,,4 A,,4 | G,,8 | C,4 E,4 | D,8 | %124
 G,,8 | z8 | z8 | z2 G,3 G, ^F,2 | G,2 D,2 E,2 ^F,2 | G,6 E,2 | B,,2 D,2 G,,4 | z4 z2 C,2 | %132
 E,2 E,>F, G,4 | z2 G,3 G, F,2 | E,4 B,,4 | C,4 G,,4 | z2 D,3 D, C,2 | B,,4 C,2 A,,2 | G,,4 C,4 | %139
 z8 | z2 A,3 A, ^G,2 | A,2 E,2 ^F,2 ^G,2 | A,4 E,2 B,,2 | C,2 D,2 E,4 | D,2 D,3 D, C,2 | %145
 B,,2 C,2 D,2 G,,2 | z8 | z4 C,4 | G,8 | z8 | z8 | z8 | z8 | z8 | z8 | z8 | z8 | z2 E,2 E,2 ^F,2 | %158
 G,8 | D,8 | z2 A,,2 A,,2 B,,2 | C,4 A,,4 | G,,8- | G,,2 ^F,,2 G,,4 | z2 C,2 C,2 G,,2 | D,4 z4 | %166
 z2 ^G,2 A,3 =G, | F,3 E, D,4 | A,,4 z4 | z8 | z8 | z8 | z8 | z8 | z8 | z8 | z8 | z4 z2 G,2- | %178
 G,G, F,3 F, E,2- | E,E, D,3 D, A,,2 | E,4 z4 | z8 | z8 | z4 z2 G,,2 | A,,2 B,,2 C,2 D,2 | %185
 G,,4 z4 | z4 z2 C,2 | D,2 E,2 F,2 G,2 | C,4 z4 | z4 z2 A,,2 | B,,2 C,2 D,2 E,2 | A,,4 z4 | %192
 z4 z2 F,2 | E,2 D,3 D, ^C,2 | D,4 z4 | z8 | z8 | z8 | z8 | z8 | z8 | z8 | z8 | z2 G,2 G,2 E,2 | %204
 F,2 D,2 C,4- | C,8- | C,6 E,2 | F,2 C,2 D,4- | D,8- | D,6 ^F,2 | G,2 D,2 E,4- | E,8- | E,6 G,2 | %213
 A,2 E,2 F,4- | F,8- | F,6 F,2 | G,3 F, E,4 | D,3 E, F,3 E, | D,4 C,3 D, | E,3 D, C,4 | %220
 G,,2 G,3 G, ^F,2 | G,G,,B,,C, D,4 | z2 G,3 G, ^F,2 | G,G,,B,,C, D,4 | z2 A,2- A,A, ^G,2 | %225
 A,A,,C,D, E,4 | z2 A,3 A, ^G,2 | A,A,,E,^F, G,4 | z2 C3 C B,2 | CC,E,F, G,4 | z8 | %231
 z D,E,^F, G,G,,B,,C, | D,8 | G,,4 G,4- | G,2 G,2 ^F,2 =F,2 | E,8 | B,,8 | C,8 | D,4 G,,4 | A,,8- | %240
 A,,8 | D,,8- | D,,8 | G,,8- | G,,2 A,,2 B,,4 | z2 D,2 E,2 ^F,2 | G,6 A,2 | B,8 |] %248
V:4
 x8 | _B,6 C2 | D8 | D8 | D4 D4- | D2 D2 ^C2 B,C | D8 | C4 D4 | E6 D2 | ^C2 E2 E2 D2 | %10
 C3 B, A,2 B,^C | D2 A,G, F,2 G,A, | _B,4 A,4 | z2 D2 D2 C2 | _B,2 A,2 G,4 | A,6 A,G, | %16
 ^F,2 A,2 B,4- | B,2 A,_B, A,2 G,2 | x8 |][M:4/4] x8 | D8 | D8 | D8 | D2 E2 F4 | E8- | E4 D2 E2 | %26
 F4 E4 | E8 | E8 | E2 D2 C2 B,2 | A2 G2 F2 E2 | D2 C2 B,2 A,2 | G2 F2 E2 D2 | C2 B,2 A,2 G,2 | %34
 F2 E2 D2 C2 | _B,2 C2 D4- | D2 C2 _B,4 | A,8 | A,4 D2 C2 | _B,4 A,2 z2 | D8 | z4 D4 | D8 | x8 |] %44
[M:4/4] A,8 | G,6 A,2 | _B,8 | A,2 DE F2 G2 | A8 | G3 F E2 DE | F2 E2 F2 A2- | A4 G2 D2 | %52
 E3 D ^C2 z2 | z2 ^C2 D4- | D2 EF GFED | ^C4 D4- | D4 ^C D2 C | D2 ^F2 F2 F2 | G4 E2 A2- | %59
 AA ^G2 A2 E2 | E2 E2 ^F4- | F4 z2 D2 | D2 D2 E4 | D3 E F4- | FFED ^C4- | C2 ^C2 D2 E2 | F2 FG A4 | %67
 z AGF ED E2 | F4 z2 DE | F4 z FED | ^CD C2 D2 z2 | z8 | z8 | z8 | z2 z C DEFG | A2 F2 D2 C_B,/C/ | %76
 D2 C_B, A,2 A2 | G2 F2- FF E2 | F2 d2 c_B AG/A/ | _B2 AG F2 f2 | e2 d3 d ^c2 | d2 A2 GF ED/E/ | %82
 F2 ED C2 c2 | B2 A3 A ^G2 | A2 z2 z2 E2 | D2 z2 z2 A2 | G2 z2 z2 D2 | C2 z2 z2 G2 | F4 z C F2 | %89
 z F D2 z D G2 | z G E2 z E A2 | z A G2 F2 E2 | D2 CD E2 D2 | ^C4 D4 | ^C2 A2 A4 | A2 ^c2 d4 | %96
 ^c2 A2 A4 | G2 G4 F2 | F3 E D2 z2 | z4 c_B A2 | _B2 AG ^F2 F2 | G4 ^F2 D2 | D4 D2 ^F2 | %103
 G^FGA _BGBA | G2 _B2 A2 G2 | ^F3 G F2 E2 | D8 |][M:4/4] D8 | G4 A4- | A2 A2 G4 | G2 ^FE F4 | %111
 G2 E2 D4 | E2 F2 G4 | z8 | z GFE D2 E2 | F8 | E2 F2 G4 | G8 | F2 G2 A4 | G4 A4 | G4 ^F4 | G6 F2 | %122
 E2 D2 ^C4 | D4 D2 C2 | B,6 G2- | GG ^F2 G2 D2 | E2 ^F2 G4- | G4 z4 | z8 | z4 z2 G2- | GG ^F2 G4 | %131
 C2 D2 E3 F | G2 E2 D4 | E2 D2 E2 F2 | G4- GG F2 | E4 D4- | D2 A,2 B,2 C2 | DCB,A, G,2 C2- | %138
 CC B,2 C2 z2 | A,2 B,2 C4 | E8 | z2 G,2 A,2 B,2 | CDE^F G2 D2 | E2 D3 D ^C2 | D2 A,2 B,2 C2 | %145
 D2 CB, A,2 G2- | GG F2 E2 F2 | G2 C2 z2 E2- | E2 E2 D2 G2- | G2 G2 ^F2 FG | A2 AB c2 cA | %151
 B2 Bc ABGA | ^FGAB c2 G2- | G2 A2 BAGF | E3 D C2 D2 | E2 ^F2 G2 A2 | B2 AG ^F G2 F | G8 | %158
 z2 D2 D2 E2 | F4- FFED | E3 D C2 B,A, | G,4 C4 | B,4 C4- | C2 C2 B,CA,B, | C2 G,^F, G,A,B,C | %165
 A,2 ^FE FGAF | ^G2 B2 A2 E2 | F2 C2 D4 | A2 A3 A G2 | ^F3 D F2 A2 | G3 G B2 d2 | c2 c3 c B2- | %172
 BB A3 A G2- | GG F3 F E2 | ^F2 G2 A2 B2 | c6 BA | G3 F E^FGE | ^F G2 F G4 | D3 D C3 C | %179
 B,3 B, A,B,CD | B,4 C3 C | D3 D E3 E | ^F3 F G3 G | x BcA B2 D2 | C2 B,2 A,4 | B,2 B2 A2 G2- | %186
 GG ^F2 G2 G2 | F2 E2 D4 | C2 E2 D2 C2- | CC [B,C]2 C E2 x | D2 C2 B,4 | C2 c2 B2 A2- | %192
 AA ^G2 A2 D2 | E2 F2 G2 A2 | D3 D G2 F2 | E4 D4 | x D3 B,A, G,2 | G3 F ED C2 | z c A2 _B2 G2 | %199
 z A ^F2 G2 E z | z F D2 E2 ^F2 | G2 A2 B2 c2 | A2 G2 A4 | G2 D2 D2 E2 | C2 D2 E4- | E8 | z8 | z8 | %208
 z8 | z8 | z8 | z8 | z8 | z8 | z8 | z8 | z4 z2 G2 | F8- | F4 E4- | E8 | D8 | D4- D3 C | B,4 A,4 | %223
 B,4 A,2 D2 | E4- E3 D | C4 B,4 | C4 B,4 | C2 E2 D4 | G4- G3 F | E4 D4 | E4 D3 E | ^F3 E D4 | D8 | %233
 D8 | z8 | z4 G4- | G2 G2 ^F2 =F2 | E8 | D8 | ^C4 D4- | D2 D2 C4- | C2 C2 B,2 _B,2 | A,2 G,2 A,4 | %243
 G,2 A,2 B,2 C2 | D4 D4- | D2 CB, C4 | z8 | D8 |] %248
V:5
 x8 | x8 | x8 | x8 | x8 | x8 | x8 | x8 | x8 | x8 | x8 | x8 | x8 | x8 | x8 | x8 | x8 | x8 | x8 |] %19
[M:4/4] x8 | x8 | x8 | x8 | x8 | x8 | x8 | x8 | x8 | x8 | x8 | x8 | x8 | x8 | x8 | x8 | x8 | x8 | %37
 x8 | x8 | x8 | x8 | x8 | x8 | x8 |][M:4/4] x8 | x8 | x8 | x8 | A,,4 A,2 B,2 | C2 G,2 A,2 _B,2 | %50
 A,4 D,2 D,E, | F,G, A,2 E,2 F,2 | E,4 A,,4 | z2 A,,2 D,2 C,2 | _B,,2 A,,2 G,,4 | A,,8- | A,,8 | %57
 D,,2 z2 z4 | z8 | z4 z2 A,,2 | A,,2 A,,2 D,4- | D,4 z2 G,,2 | G,,2 G,,2 C,4 | G,,4 D,4- | %64
 z D,^C,B,, A,,4- | A,,2 z2 z4 | z4 z2 F,G, | A,F,_B,F, CD C2 | F,2 D,E, F,4 | x2 D,E, F,D,G,D, | %70
 A,_B, A,2 D,4 | D3 D A,2 C2- | CC G,2 _B,3 B, | F,2 A,3 A, E,2 | F,3 E, D,4 | %75
 A,,2 z F,, G,,2 A,,2 | _B,,2 C,2 F,,2 z2 | z8 | x2 D,2 E,2 F,2 | G,4 D,2 z2 | z8 | %81
 z2 A,,2 B,,2 C,2 | D,2 E,2 A,,2 z2 | z8 | z4 z2 A,,2 | D,4 z2 D,2 | G,4 z2 G,,2 | C,4 z2 C,2 | %88
 F,4 z F, D,2 | x D, G,2 z G, E,2 | x E, A,2 z A, F,2 | z F,CC, D,DA,A,, | _B,,_B,F,F,, C,2 D,2 | %93
 A,,4 _B,,4 | A,,2 A,2 F,2 D,2 | A,2 z2 z4 | z2 A,G, F,E, D,2 | G,F,E,D, C,2 F,E, | %98
 D,C, _B,,3 C, D,2 | A,,4 E,,F,F,F,, | G,,G,A,A,, D,4 | z4 z2 D,2 | _B,,2 G,,2 D,4 | G,,8- | G,,8 | %105
 D,8 | D,,8 |][M:4/4] x8 | x8 | x8 | x8 | x8 | x8 | x8 | x8 | x8 | x8 | x8 | x8 | x8 | x8 | x8 | %122
 x8 | x8 | x8 | x8 | x8 | x8 | x8 | x8 | x8 | x8 | x8 | x8 | x8 | x8 | x8 | x8 | x8 | x8 | x8 | %141
 x8 | x8 | x8 | x8 | x8 | x8 | x8 | x8 | x8 | x8 | x8 | x8 | x8 | x8 | x8 | x8 | x8 | x8 | x8 | %160
 x8 | x8 | x8 | x8 | x8 | x8 | x8 | x8 | x8 | x8 | x8 | x8 | x8 | x8 | x8 | x8 | x8 | x8 | x8 | %179
 x8 | x8 | x8 | x8 | x8 | x8 | x8 | x8 | x8 | x8 | x8 | x8 | x8 | x8 | x8 | x8 | x x7 | x8 | x8 | %198
 x8 | x8 | x8 | x8 | x8 | x8 | x8 | x8 | x8 | x8 | x8 | x8 | x8 | x8 | x8 | x8 | x8 | x8 | x8 | %217
 x8 | x8 | x8 | x8 | x8 | x8 | x8 | x8 | x8 | x8 | x8 | x8 | x8 | x8 | x8 | x8 | x8 | x8 | x8 | %236
 x8 | x8 | x8 | x8 | x8 | x8 | x8 | x8 | x8 | x8 | x8 | x8 |] %248
V:6
 x8 | x8 | x8 | x8 | x8 | x8 | x8 | x8 | x8 | x8 | x8 | x8 | x8 | x8 | x8 | x8 | x8 | x8 | x8 |] %19
[M:4/4] x8 | x8 | x8 | x8 | x8 | x8 | x8 | x8 | x8 | x8 | x8 | x8 | x8 | x8 | x8 | x8 | x8 | x8 | %37
 x8 | x8 | x8 | x8 | x8 | x8 | x8 |][M:4/4] x8 | x8 | x8 | x8 | x8 | x8 | x8 | x8 | x8 | x8 | x8 | %55
 x8 | x8 | x8 | x8 | x8 | x8 | x8 | x8 | x8 | x8 | x8 | x8 | x8 | x8 | x8 | x8 | x8 | x8 | x8 | %74
 x8 | x8 | x8 | x8 | x8 | x8 | x8 | x8 | x8 | x8 | x8 | x8 | x8 | x8 | x8 | x8 | x8 | x8 | x8 | %93
 x8 | x8 | x8 | x8 | x8 | x8 | x8 | x8 | x8 | x8 | x8 | x8 | x8 | x8 |][M:4/4] x8 | x8 | x8 | x8 | %111
 x8 | x8 | x8 | x8 | x8 | x8 | x8 | x8 | x8 | x8 | x8 | x8 | x8 | x8 | x8 | x8 | x8 | x8 | x8 | %130
 x8 | x8 | x8 | x8 | x8 | x8 | x8 | x8 | x8 | x8 | x8 | x8 | x8 | x8 | x8 | x8 | x8 | x8 | x8 | %149
 x8 | x8 | x8 | x8 | x8 | x8 | x8 | x8 | x8 | x8 | x8 | x8 | x8 | x8 | x8 | x8 | x8 | x8 | x8 | %168
 x8 | x8 | x8 | x8 | x8 | x8 | x8 | x8 | x8 | x8 | x8 | x8 | x8 | x8 | x8 | x8 | x8 | x8 | x8 | %187
 x8 | x8 | x8 | x8 | x8 | x8 | x8 | x8 | x x7 | x8 | x8 | x8 | x8 | x8 | x8 | x8 | x8 | x8 | x8 | %206
 x8 | x8 | x8 | x8 | x8 | x8 | x8 | x8 | x8 | x8 | x8 | x8 | x8 | x8 | x8 | x8 | x8 | x8 | x8 | %225
 x8 | x8 | x8 | x8 | x8 | x8 | x8 | x8 | x8 | x8 | x8 | x8 | x8 | x8 | x8 | x8 | x8 | x8 | x8 | %244
 x8 | C,8 | G,,8- | G,,8 |] %248

